public/icons/newspaper.svg

<?xml version="1.0" encoding="UTF-8" standalone="no"?>
<!-- Created with Inkscape (http://www.inkscape.org/) -->

<svg
   width="16"
   height="16"
   viewBox="0 0 16 16"
   version="1.1"
   id="svg1"
   xmlns="http://www.w3.org/2000/svg"
   xmlns:svg="http://www.w3.org/2000/svg">
  <defs
     id="defs1" />
  <g
     id="layer1">
    <path
       id="rect1"
       style="fill-rule:evenodd;stroke-width:1.05305"
       d="M 4.0839844 0.61328125 C 3.282512 0.61328125 2.6367187 1.1952145 2.6367188 1.9179688 L 2.6367188 14.212891 C 2.6367188 14.935644 3.282512 15.517578 4.0839844 15.517578 L 12.349609 15.517578 C 13.151085 15.517578 13.796875 14.935644 13.796875 14.212891 L 13.796875 1.9179688 C 13.796875 1.1952145 13.151085 0.61328125 12.349609 0.61328125 L 4.0839844 0.61328125 z M 4.6503906 2.4003906 L 6.9628906 2.4003906 C 7.2735647 2.4003906 7.5234375 2.6502634 7.5234375 2.9609375 L 7.5234375 5.0976562 C 7.5234375 5.4083304 7.2735647 5.6582031 6.9628906 5.6582031 L 4.6503906 5.6582031 C 4.3397165 5.6582031 4.0898437 5.4083304 4.0898438 5.0976562 L 4.0898438 2.9609375 C 4.0898438 2.6502634 4.3397165 2.4003906 4.6503906 2.4003906 z M 4.6035156 7.0761719 L 12.21875 7.0761719 C 12.529424 7.0761719 12.779297 7.3260455 12.779297 7.6367188 L 12.779297 7.9941406 C 12.779297 8.3048138 12.529424 8.5566406 12.21875 8.5566406 L 4.6035156 8.5566406 C 4.2928424 8.5566406 4.0429688 8.3048138 4.0429688 7.9941406 L 4.0429688 7.6367188 C 4.0429688 7.3260455 4.2928424 7.0761719 4.6035156 7.0761719 z M 4.6308594 9.7050781 L 12.244141 9.7050781 C 12.554813 9.7050781 12.806641 9.9549515 12.806641 10.265625 L 12.806641 10.623047 C 12.806641 10.933721 12.554813 11.185547 12.244141 11.185547 L 4.6308594 11.185547 C 4.3201859 11.185547 4.0703125 10.933721 4.0703125 10.623047 L 4.0703125 10.265625 C 4.0703125 9.9549515 4.3201859 9.7050781 4.6308594 9.7050781 z M 4.6191406 12.435547 L 12.232422 12.435547 C 12.543096 12.435547 12.792969 12.68542 12.792969 12.996094 L 12.792969 13.353516 C 12.792969 13.664189 12.543096 13.914063 12.232422 13.914062 L 4.6191406 13.914062 C 4.3084668 13.914062 4.0585938 13.664189 4.0585938 13.353516 L 4.0585938 12.996094 C 4.0585938 12.68542 4.3084668 12.435547 4.6191406 12.435547 z " />
  </g>
</svg>

<?xml version="1.0" encoding="UTF-8"?>
<!-- Created with Inkscape (http://www.inkscape.org/) -->
<svg width="16" height="16" version="1.1" viewBox="0 0 16 16" xmlns="http://www.w3.org/2000/svg">
 <path d="m4.084 0.6133c-0.801 0-1.447 0.5817-1.447 1.305v12.29c0 0.73 0.646 1.31 1.447 1.31h8.266c0.8 0 1.45-0.58 1.45-1.31v-12.29c0-0.723-0.65-1.305-1.45-1.305zm0.566 1.787h2.313c0.311 0 0.56 0.25 0.56 0.561v2.137c0 0.31-0.249 0.56-0.56 0.56h-2.313c-0.31 0-0.56-0.25-0.56-0.56v-2.137c0-0.311 0.25-0.561 0.56-0.561zm-0.046 4.676h7.616c0.81 0 0.69 1.481 0 1.481h-7.616c-0.832-0.203-0.698-1.481 0-1.481zm0.027 2.629h7.609c0.72 0 0.7 1.485 0 1.485h-7.609c-0.621 0-0.635-1.485 0-1.485zm-0.012 2.735h7.611c0.78 0 0.69 1.47 0 1.47h-7.611c-0.701 0-0.631-1.47 0-1.47z" fill-rule="evenodd"/>
</svg>
